static/img/kroki/ce70e190ba8701ef2f59e811336504b4.svg

<?xml version="1.0" encoding="us-ascii" standalone="no"?><svg xmlns="http://www.w3.org/2000/svg" xmlns:xlink="http://www.w3.org/1999/xlink" contentStyleType="text/css" height="374px" preserveAspectRatio="none" style="width:469px;height:374px;" version="1.1" viewBox="0 0 469 374" width="469px" zoomAndPan="magnify"><defs/><g><!--class digitalocean_droplet_neighborhood--><g id="elem_digitalocean_droplet_neighborhood"><rect codeLine="23" fill="#3D176E" height="39.7891" id="digitalocean_droplet_neighborhood" rx="2.5" ry="2.5" style="stroke:#000D19;stroke-width:0.5;" width="335" x="73" y="328.58"/><ellipse cx="88" cy="348.4745" fill="#ADD1B2" rx="11" ry="11" style="stroke:#181818;stroke-width:1.0;"/><path d="M90.9688,354.1152 Q90.3906,354.412 89.75,354.5527 Q89.1094,354.7089 88.4063,354.7089 Q85.9063,354.7089 84.5781,353.0683 Q83.2656,351.412 83.2656,348.287 Q83.2656,345.162 84.5781,343.5058 Q85.9063,341.8495 88.4063,341.8495 Q89.1094,341.8495 89.75,342.0058 Q90.4063,342.162 90.9688,342.4589 L90.9688,345.1777 Q90.3438,344.5995 89.75,344.3339 Q89.1563,344.0527 88.5313,344.0527 Q87.1875,344.0527 86.5,345.1308 Q85.8125,346.1933 85.8125,348.287 Q85.8125,350.3808 86.5,351.4589 Q87.1875,352.5214 88.5313,352.5214 Q89.1563,352.5214 89.75,352.2558 Q90.3438,351.9745 90.9688,351.3964 L90.9688,354.1152 Z " fill="#000000"/><text fill="#D9B8FF" font-family="Helvetica" font-size="17" lengthAdjust="spacing" textLength="293" x="107" y="354.3598">digitalocean_droplet_neighborhood</text></g><!--class digitalocean_resource--><g id="elem_digitalocean_resource"><rect codeLine="26" fill="#3D176E" height="39.7891" id="digitalocean_resource" rx="2.5" ry="2.5" style="stroke:#000D19;stroke-width:0.5;" width="223" x="7" y="167.79"/><ellipse cx="22" cy="187.6845" fill="#ADD1B2" rx="11" ry="11" style="stroke:#181818;stroke-width:1.0;"/><path d="M24.9688,193.3252 Q24.3906,193.622 23.75,193.7627 Q23.1094,193.9189 22.4063,193.9189 Q19.9063,193.9189 18.5781,192.2783 Q17.2656,190.622 17.2656,187.497 Q17.2656,184.372 18.5781,182.7158 Q19.9063,181.0595 22.4063,181.0595 Q23.1094,181.0595 23.75,181.2158 Q24.4063,181.372 24.9688,181.6689 L24.9688,184.3877 Q24.3438,183.8095 23.75,183.5439 Q23.1563,183.2627 22.5313,183.2627 Q21.1875,183.2627 20.5,184.3408 Q19.8125,185.4033 19.8125,187.497 Q19.8125,189.5908 20.5,190.6689 Q21.1875,191.7314 22.5313,191.7314 Q23.1563,191.7314 23.75,191.4658 Q24.3438,191.1845 24.9688,190.6064 L24.9688,193.3252 Z " fill="#000000"/><text fill="#D9B8FF" font-family="Helvetica" font-size="17" lengthAdjust="spacing" textLength="181" x="41" y="193.5698">digitalocean_resource</text></g><!--class phantom_resource--><g id="elem_phantom_resource"><rect codeLine="29" fill="#3D176E" height="39.7891" id="phantom_resource" rx="2.5" ry="2.5" style="stroke:#000D19;stroke-width:0.5;" width="198" x="264.5" y="167.79"/><ellipse cx="279.5" cy="187.6845" fill="#ADD1B2" rx="11" ry="11" style="stroke:#181818;stroke-width:1.0;"/><path d="M282.4688,193.3252 Q281.8906,193.622 281.25,193.7627 Q280.6094,193.9189 279.9063,193.9189 Q277.4063,193.9189 276.0781,192.2783 Q274.7656,190.622 274.7656,187.497 Q274.7656,184.372 276.0781,182.7158 Q277.4063,181.0595 279.9063,181.0595 Q280.6094,181.0595 281.25,181.2158 Q281.9063,181.372 282.4688,181.6689 L282.4688,184.3877 Q281.8438,183.8095 281.25,183.5439 Q280.6563,183.2627 280.0313,183.2627 Q278.6875,183.2627 278,184.3408 Q277.3125,185.4033 277.3125,187.497 Q277.3125,189.5908 278,190.6689 Q278.6875,191.7314 280.0313,191.7314 Q280.6563,191.7314 281.25,191.4658 Q281.8438,191.1845 282.4688,190.6064 L282.4688,193.3252 Z " fill="#000000"/><text fill="#D9B8FF" font-family="Helvetica" font-size="17" lengthAdjust="spacing" textLength="156" x="298.5" y="193.5698">phantom_resource</text></g><!--class resource--><g id="elem_resource"><rect codeLine="32" fill="#3D176E" height="39.7891" id="resource" rx="2.5" ry="2.5" style="stroke:#000D19;stroke-width:0.5;" width="113" x="184" y="7"/><ellipse cx="199" cy="26.8945" fill="#ADD1B2" rx="11" ry="11" style="stroke:#181818;stroke-width:1.0;"/><path d="M201.9688,32.5352 Q201.3906,32.832 200.75,32.9727 Q200.1094,33.1289 199.4063,33.1289 Q196.9063,33.1289 195.5781,31.4883 Q194.2656,29.832 194.2656,26.707 Q194.2656,23.582 195.5781,21.9258 Q196.9063,20.2695 199.4063,20.2695 Q200.1094,20.2695 200.75,20.4258 Q201.4063,20.582 201.9688,20.8789 L201.9688,23.5977 Q201.3438,23.0195 200.75,22.7539 Q200.1563,22.4727 199.5313,22.4727 Q198.1875,22.4727 197.5,23.5508 Q196.8125,24.6133 196.8125,26.707 Q196.8125,28.8008 197.5,29.8789 Q198.1875,30.9414 199.5313,30.9414 Q200.1563,30.9414 200.75,30.6758 Q201.3438,30.3945 201.9688,29.8164 L201.9688,32.5352 Z " fill="#000000"/><text fill="#D9B8FF" font-family="Helvetica" font-size="17" lengthAdjust="spacing" textLength="71" x="218" y="32.7798">resource</text></g><!--reverse link digitalocean_resource to digitalocean_droplet_neighborhood--><g id="link_digitalocean_resource_digitalocean_droplet_neighborhood"><path codeLine="35" d="M144.1839,222.1156 C167.6239,252.6356 202.25,297.69 225.73,328.25 " fill="none" id="digitalocean_resource-backto-digitalocean_droplet_neighborhood" style="stroke:#FFAF37;stroke-width:2.0;"/><polygon fill="none" points="133.22,207.84,139.4254,225.7702,148.9425,218.4609,133.22,207.84" style="stroke:#FFAF37;stroke-width:2.0;"/></g><!--reverse link phantom_resource to digitalocean_droplet_neighborhood--><g id="link_phantom_resource_digitalocean_droplet_neighborhood"><path codeLine="36" d="M337.6375,222.0704 C313.9975,252.5904 279.06,297.69 255.39,328.25 " fill="none" id="phantom_resource-backto-digitalocean_droplet_neighborhood" style="stroke:#FFAF37;stroke-width:2.0;"/><polygon fill="none" points="348.66,207.84,332.894,218.3962,342.381,225.7446,348.66,207.84" style="stroke:#FFAF37;stroke-width:2.0;"/></g><!--reverse link resource to digitalocean_resource--><g id="link_resource_digitalocean_resource"><path codeLine="37" d="M214.8131,61.3233 C191.3631,91.8433 156.75,136.9 133.27,167.46 " fill="none" id="resource-backto-digitalocean_resource" style="stroke:#FFAF37;stroke-width:2.0;"/><polygon fill="none" points="225.78,47.05,210.0553,57.6677,219.5709,64.9789,225.78,47.05" style="stroke:#FFAF37;stroke-width:2.0;"/></g><!--reverse link resource to phantom_resource--><g id="link_resource_phantom_resource"><path codeLine="38" d="M266.3625,61.2804 C290.0025,91.8004 324.94,136.9 348.61,167.46 " fill="none" id="resource-backto-phantom_resource" style="stroke:#FFAF37;stroke-width:2.0;"/><polygon fill="none" points="255.34,47.05,261.619,64.9546,271.106,57.6062,255.34,47.05" style="stroke:#FFAF37;stroke-width:2.0;"/></g><!--SRC=[ZP1FJy904CNl_HIRS2O1YGA95snYz4ACU2VJxcoxeTrfPWS9_ldkYeXPjWMypllDlFUcj1eLreriLOrrXkmJlxAk0OPQpPXfar95h7h6W1cDO_6Ud5m4vb2ZUi3g5SNc41ClfSrN3hrNLu5q1_cgO5exlJyl3Cv_I-WaeD8Al9-9iCtMWa4OFSqcniHaVBGtqiFn3ROmOetyYmm60psSniX5gxEz_uY5VKCr39ys9y5Mp9R53tKsvOu8GhQA7lIJ6Pz0Q-iATHtCdlUPs24VpHSbQDhiQ0EL3ssy82F9ji6qrGgd4st6dV3ZAJZ9TwzJsXPMeA8SmIqrKrEXB1tQeio8IoAjtfFaimjczBJc74EWAS49rPtQyQpxrEr7lz-_d2bf-VntyTp2GOkXs2pv0W00]--></g></svg>

<svg xmlns="http://www.w3.org/2000/svg" width="469" height="374" viewBox="0 0 469 374"><rect width="335" height="39.789" x="73" y="328.58" fill="#3D176E" rx="2.5" ry="2.5" style="stroke:#000d19;stroke-width:.5"/><circle cx="88" cy="348.474" r="11" fill="#ADD1B2" style="stroke:#181818;stroke-width:1"/><path d="M90.969 354.115q-.578.297-1.219.438-.64.156-1.344.156-2.5 0-3.828-1.64-1.312-1.657-1.312-4.782t1.312-4.781q1.328-1.656 3.828-1.656.703 0 1.344.156.656.156 1.219.453v2.719q-.625-.579-1.219-.844-.594-.281-1.219-.281-1.344 0-2.031 1.078-.687 1.062-.687 3.156t.687 3.172q.688 1.062 2.031 1.062.625 0 1.219-.265.594-.281 1.219-.86z"/><text x="107" y="354.36" fill="#D9B8FF" font-family="Helvetica" font-size="17" textLength="293">digitalocean_droplet_neighborhood</text><rect width="223" height="39.789" x="7" y="167.79" fill="#3D176E" rx="2.5" ry="2.5" style="stroke:#000d19;stroke-width:.5"/><circle cx="22" cy="187.685" r="11" fill="#ADD1B2" style="stroke:#181818;stroke-width:1"/><path d="M24.969 193.325q-.578.297-1.219.438-.64.156-1.344.156-2.5 0-3.828-1.64-1.312-1.657-1.312-4.782t1.312-4.781q1.328-1.656 3.828-1.656.703 0 1.344.156.656.156 1.219.453v2.719q-.625-.578-1.219-.844-.594-.281-1.219-.281-1.343 0-2.031 1.078-.687 1.062-.687 3.156t.687 3.172q.688 1.062 2.031 1.062.625 0 1.219-.265.594-.281 1.219-.86z"/><text x="41" y="193.57" fill="#D9B8FF" font-family="Helvetica" font-size="17" textLength="181">digitalocean_resource</text><rect width="198" height="39.789" x="264.5" y="167.79" fill="#3D176E" rx="2.5" ry="2.5" style="stroke:#000d19;stroke-width:.5"/><circle cx="279.5" cy="187.685" r="11" fill="#ADD1B2" style="stroke:#181818;stroke-width:1"/><path d="M282.469 193.325q-.578.297-1.219.438-.64.156-1.344.156-2.5 0-3.828-1.64-1.312-1.657-1.312-4.782t1.312-4.781q1.328-1.656 3.828-1.656.703 0 1.344.156.656.156 1.219.453v2.719q-.625-.578-1.219-.844-.594-.281-1.219-.281-1.344 0-2.031 1.078-.687 1.062-.687 3.156t.687 3.172q.688 1.062 2.031 1.062.625 0 1.219-.265.594-.281 1.219-.86z"/><text x="298.5" y="193.57" fill="#D9B8FF" font-family="Helvetica" font-size="17" textLength="156">phantom_resource</text><rect width="113" height="39.789" x="184" y="7" fill="#3D176E" rx="2.5" ry="2.5" style="stroke:#000d19;stroke-width:.5"/><circle cx="199" cy="26.895" r="11" fill="#ADD1B2" style="stroke:#181818;stroke-width:1"/><path d="M201.969 32.535q-.578.297-1.219.438-.64.156-1.344.156-2.5 0-3.828-1.64-1.312-1.657-1.312-4.782t1.312-4.781q1.328-1.656 3.828-1.656.703 0 1.344.156.656.156 1.219.453v2.719q-.625-.578-1.219-.844-.594-.281-1.219-.281-1.344 0-2.031 1.078-.687 1.062-.687 3.156t.687 3.172q.688 1.062 2.031 1.062.625 0 1.219-.265.594-.281 1.219-.86z"/><text x="218" y="32.78" fill="#D9B8FF" font-family="Helvetica" font-size="17" textLength="71">resource</text><path fill="none" d="M144.184 222.116c23.44 30.52 58.066 75.574 81.546 106.134m-92.51-120.41 6.205 17.93 9.517-7.31z" style="stroke:#ffaf37;stroke-width:2"/><g fill="none"><path d="M337.638 222.07c-23.64 30.52-58.578 75.62-82.248 106.18" style="stroke:#ffaf37;stroke-width:2"/><path d="m348.66 207.84-15.766 10.556 9.487 7.349z" style="stroke:#ffaf37;stroke-width:2"/></g><path fill="none" d="M214.813 61.323c-23.45 30.52-58.063 75.577-81.543 106.137m92.51-120.41-15.725 10.618 9.516 7.31z" style="stroke:#ffaf37;stroke-width:2"/><g fill="none"><path d="M266.363 61.28c23.64 30.52 58.577 75.62 82.247 106.18" style="stroke:#ffaf37;stroke-width:2"/><path d="m255.34 47.05 6.279 17.905 9.487-7.349z" style="stroke:#ffaf37;stroke-width:2"/></g></svg>
